X:514
T: "Getrennte Liebe"
N: Z1194
O: Europa, Mitteleuropa, Deutschland, Schwaben; Tirol
N: Die letzten 12 Takte werden auf die Silbe'la' gesungen.
R: Liebes - Lied, verlassene Liebe
M: 3/4
L: 1/8
K: Ab
c2 | dcB2f2 | e3d
c2 | dFFAGB | A3B
c2 | dcB2f2 | e3d
c2 | dFFAGB | A4
cB | B2BfB=d | eBB3
c | B2=dfBd | e2e3
c | dcB2f2 | e3dc2
dFFAGB | A3Bc2
dcB2f2 | ecaecA
Gfe2dB | A4

